X: 21161
T: THE FLYING DUTCHMAN -- Hornpipe
C: By James Hill
R: hornpipe
B: K\"ohler's Violin Repository, v.2, 1885 p.116 #1
F: http://www.archive.org/details/klersviolinrepos02rugg
Z: 2012 John Chambers <jc:trillian.mit.edu>
M: C|
L: 1/8
K: A
(uc>d) |\
(f>e)c>A (E>A)E>D | (C>A,)E>C (A>E)c>A | (d>B)f>d (c>A)e>c | (B>A)G>A [B2G2]c>d |
e2c>A (G>A)E>D | (C>A,)E>C (A>E)c>A | (B>d)f>d | (c>B)A>G | [B2G2]A2 A2 :|
|: (uE>D) |\
(C>A,)E>C (A>E)c>A | (e>c)a>e (c>A)e>c | (d>B)f>d (c>A)e>c | (B>A)G>A [B2G2]c>d |
e2c>A (G>A)E>D | (C>A,)E>C (A>E)c>A | (B>d)f>d | (c>B)A>G | B2A2 A2 :|

%%sep 2 1 500

